X: 41
T:Buttock Beaf
M:6/4
L:1/4
S:Wright 1713
Z:p
K:GMIN
d/c/4d/4|B3g>ab|G>ABc>dc/B/|A2FF2B|G>_AGF>ED|E>FGAFA|B2B,B,2||
E/D/4E/4|F3BFD|E3GEC|G(c2c2)d/e/|f3ged|c3gab|d2BB2||
